X: 86
T: Irish Dump
%R: waltz, minuet
B: "The Hibernian Muse" p.53 #2
F: http://imslp.org/wiki/The_Hibernian_Muse_%28Various%29
Z: 2015 John Chambers <jc:trillian.mit.edu>
N: The 2nd strain has initial repeat but no final repeat; not fixed.
P: No. LXXXVI.
M: 3/4
L: 1/8
K: G
% - - - - - - - - - - - - - - - - - - - - - - - - - - - - -
V: 1
Bc |\
(de)(dB)(dB) | Tg4 fe | (de)(dB)(AG) | G3 A B2 |\
A2 e2 d2 | g3 a (g/a/b) | G3 A(Bd) | {B2}A4 :|
|: (Bc) |\
(dedc) B2 | g4 (fg) | a4 (ga) | b3 (agf) |\
e4 (dB) | g3 a (g/a/b) | G3 (ABd) | {B}A4 |]
% - - - - - - - - - - - - - - - - - - - - - - - - - - - - -
V: 2 clef=bass middle=d
z2 |\
G2 g2 f2 | e2 c2 A2 | d4 c2 | B3 A G2 |\
c4 c'2 | b2 g2 z2 | G2 d2 g2 | d4 :|
|: (ga) |\
(bc'ba) g2 | z2 b2 ag | f2 d2 z2 | g3 (fed) |
c2 c'2 z2 | G2 d2 g2 | G2 d2 g2 | d4 |]
